X:1
T:There’s a Sweet and Blessèd Story
T:J. W. Henderson
T:There’s a Sweet and Blessèd Story
T:Public Domain
T:Public Domain
T:Public Domain
C:J. W. Henderson
Z:Public Domain
%%score ( 1 2 ) ( 3 4 )
L:1/8
M:4/4
K:Bb
V:1 treble 
V:2 treble 
V:3 bass 
V:4 bass 
V:1
 [B,D][CE] | [DF][DF][DF][DF] [EG][DF][B,D][B,F] | [DB][DB][EB][EB] [Ec][EB][EG][EB] | %3
w: 1.~There’s a|sweet and bless- èd stor- y Of the|Christ who came from glor- y Just to|
w: 2.~From the|depth of sin and sad- ness To the|heights of joy and glad- ness Je- sus|
w: 3.~From the|throne of heav’n- ly glor- y, O the|sweet and bless- èd stor- y, Je- sus|
w: 4.~By and|by with joy in- creas- ing, And with|gra- ti- tude un- ceas- ing, Lift- ed|
 [EA]>[CE] [CE]3 [EA][EG][EA] | [DG]>[B,D] [B,D]4 [B,D][CE] | [DF][DF][DF][DF] [EG][DF][B,D]F | %6
w: res- cue me from sin and|mis- er- y. He in|lov- ing- kind- ness sought me, And from|
w: lift- ed me, in mer- cy|full and free. With His|pre- cious blood He bought me; When I|
w: came to lift the lost in|sin and woe In- to|li- ber- ty all glor- ious, Tro- phies|
w: up with Christ for- ev- er-|more to be, I will|join the hosts there sing- ing, In the|
 [DB][DB][Ec][Gc] [^Fd][Fd][Ge][Gc] | [EA][EF][EG][EA] [Fd]2 [Ec]2 | [DB]6 ||"^Refrain" [CA]>[DB] | %10
w: and sin shame hath brought me. Hal- le-|lu- jah! Je- sus ran- somed|me.||
w: knew Him not, He sought me, And in|love di- vine He ran- somed|me.|Hal- le-|
w: of His grace vic- tor- ious, Ev- er-|more re- joic- ing here be-|low.||
w: an- them ev- er ring- ing, To the|King of Love, Who ran- somed|me.||
 [Ec][Ec][Ec][Ec] [Ec][EA][DB][Dc] | [DB][DB][DB][Ec] [DB][DF][DB][FA] | %12
w: ||
w: lu- jah, what a Sav- ior, Who can|take a poor lost sin- ner, Lift him|
w: ||
w: ||
 [EG][EG][EG][EG] [=EG][EG][Ec][Ed] | (F2 F>E EC)[B,D][CE] | [DF][DF][DF][DF] [EG][DF][B,D]F | %15
w: |||
w: from the mir- y clay and set him|free! * * * * I will|er tell the stor- y, Shout- ing, “Glor-|
w: |||
w: |||
 [DB][DB][Ec][Gc] [^Fd][Fd] [Ge]>[Gc] | [FA][EF][EG][EA] [Fd]2 [Ec]2 | [DB]6 |] %18
w: |||
w: y, glor- y, glor- y!” Hal- le- lu-|jah! Je- sus ran- somed me.||
w: |||
w: |||
V:2
 x2 | x8 | x8 | x8 | x8 | x8 | x8 | x8 | x6 || x2 | x8 | x8 | x8 | c6 x2 | x8 | x8 | x8 | x6 |] %18
w: ||||||||||||||||||
w: |||||||||||||ev-|||||
V:3
 [B,,F,][B,,F,] | [B,,B,][B,,B,][B,,B,][B,,B,] [B,,B,][B,,B,][B,,B,][D,B,] | %2
w: ~ ~|~ ~ ~ ~ ~ ~ ~ ~|
 [G,B,][F,_A,][E,G,][E,G,] [E,G,][E,G,][C,B,][C,G,] | F,>[F,A,] [F,A,]3 [F,C][F,C][F,C] | %4
w: ~ ~ ~ ~ ~ ~ ~ ~|~ ~ ~ ~ ~ ~|
 [B,,B,]>[B,,F,] [B,,F,]4 [B,,F,][B,,F,] | %5
w: ~ ~ ~ ~ ~|
 [B,,B,][B,,B,][B,,B,][B,,B,] [B,,B,][B,,B,][B,,B,][D,B,] | %6
w: ~ ~ ~ ~ ~ ~ ~ ~|
 [G,B,][F,_A,][E,G,][E,G,] [D,=A,][D,A,][C,C][E,C] | [F,C][F,A,][F,B,][F,C] [F,B,]2 [F,A,]2 | %8
w: ~ ~ ~ ~ ~ ~ ~ ~|~ ~ ~ ~ ~ ~|
 [B,,B,]6 || F,>[F,G,] | [F,A,][F,A,][F,A,][F,A,] [F,A,][F,C][F,A,]F, | %11
w: ~|~ ~|~ ~ ~ ~ ~ ~ ~ ~|
 [B,,F,][B,,F,][B,,F,][B,,G,] [B,,F,][B,,B,][B,,B,][D,B,] | %12
w: ~ ~ ~ ~ ~ ~ ~ ~|
 [E,B,][E,B,][E,B,][D,B,] [C,C][C,C][C,C][C,B,] | %13
w: ~ ~ ~ ~ ~ ~ ~ ~|
 [F,A,]2 [E,A,]>[C,F,] [A,,F,][A,,F,][B,,F,][B,,F,] | %14
w: Hal- le- lu- jah * * *|
 [B,,B,][B,,B,][B,,B,][B,,B,] [B,,B,][B,,B,][F,B,][D,B,] | %15
w: |
 [G,B,][F,_A,][E,G,][E,G,] [D,=A,][D,A,] [C,C]>[E,C] | [F,C][F,A,][F,B,][F,C] [F,B,]2 [F,A,]2 | %17
w: ||
 [B,,F,]6 |] %18
w: |
V:4
 x2 | x8 | x8 | x8 | x8 | x8 | x8 | x8 | x6 || F,3/2 x/ | x8 | x8 | x8 | x8 | x8 | x8 | x8 | x6 |] %18
w: |||||||||~|||||||||

